packages/core/src/svgs/kiba.svg

<svg width="24" height="24" viewBox="0 0 24 24" fill="none" xmlns="http://www.w3.org/2000/svg">
<g clip-path="url(#clip0_31_12526)">
<path d="M0 0H24V24H0V0Z" fill="#F0F3FA"/>
<path d="M12.0001 4.71436C13.9324 4.71436 15.7855 5.48196 17.1518 6.84829C18.5182 8.21463 19.2858 10.0678 19.2858 12.0001C19.2858 13.9324 18.5182 15.7855 17.1518 17.1518C15.7855 18.5182 13.9324 19.2858 12.0001 19.2858C10.0678 19.2858 8.21463 18.5182 6.84829 17.1518C5.48196 15.7855 4.71436 13.9324 4.71436 12.0001C4.71436 10.0678 5.48196 8.21463 6.84829 6.84829C8.21463 5.48196 10.0678 4.71436 12.0001 4.71436Z" fill="url(#paint0_linear_31_12526)"/>
<path d="M12.0001 5.57129C13.7051 5.57129 15.3402 6.24858 16.5458 7.45417C17.7514 8.65976 18.4287 10.2949 18.4287 11.9999C18.4287 13.7048 17.7514 15.34 16.5458 16.5455C15.3402 17.7511 13.7051 18.4284 12.0001 18.4284C10.2951 18.4284 8.66001 17.7511 7.45442 16.5455C6.24883 15.34 5.57153 13.7048 5.57153 11.9999C5.57153 10.2949 6.24883 8.65976 7.45442 7.45417C8.66001 6.24858 10.2951 5.57129 12.0001 5.57129Z" fill="#181B1E"/>
<path d="M12.0001 16.5559L14.2758 14.7302V14.2759H9.94722L9.72437 14.503L12.0001 16.5516V16.5559Z" fill="#EE2225"/>
<path d="M15.8572 13.3672C15.8572 13.3672 16.0972 13.9886 16.0972 14.5843C16.0972 15.0343 15.7029 15.42 14.8286 15.4286C14.5458 15.4286 14.2115 15.39 13.8215 15.3L13.3672 14.55L14.4086 13.5215L15.8572 13.3715V13.3672Z" fill="#EC2022"/>
<path d="M15.3601 13.3672C15.3601 13.3672 15.6429 13.9158 15.6429 14.4386C15.6429 14.97 14.8286 15.3943 12.9858 15.0815L12.4543 14.4129L13.6758 13.5086L15.3601 13.3672Z" fill="#981C1E"/>
<path d="M11.0914 8.3573C11.0914 8.3573 11.8286 7.79159 13.0972 7.88587C13.0972 7.88587 13.6029 7.44873 14.6743 7.44873C15.7457 7.44873 17.5286 8.2673 18 8.57159C18 8.57159 15.4714 7.83445 14.6957 8.3273C13.9157 8.82016 14.16 9.72445 14.16 9.72445L12.0729 9.51016L11.0872 8.3573H11.0914Z" fill="#DB2027"/>
<path d="M15.7713 9.26991C15.7713 9.26991 16.5556 10.4528 16.5556 11.0571C16.5556 11.6656 16.2985 11.9356 15.6342 11.9956C14.9699 12.0556 14.7042 11.6699 14.7342 11.5242L15.1928 9.56562L15.7713 9.26562V9.26991Z" fill="#EA1C27"/>
<path d="M15.3128 9.72412C15.3128 9.72412 16.0971 10.7098 16.0971 11.2155C16.0971 11.7213 15.8443 11.9441 15.18 11.9955C14.5157 12.0427 14.2457 11.7255 14.28 11.6013C14.31 11.4727 14.7386 9.97269 14.7386 9.97269L15.3128 9.72412Z" fill="#981C1E"/>
<path d="M6.69846 13.2855C6.69846 13.2855 5.80703 11.1041 8.07417 10.1441L8.35703 10.037L8.28846 9.72412L8.07417 9.80983C8.07417 9.80983 5.16846 10.0927 5.16846 12.1713C5.16846 13.7698 6.28274 14.5713 6.28274 14.5713C6.28274 14.5713 5.02274 12.8698 6.18846 11.5713C6.18846 11.5713 5.97846 12.257 6.70274 13.2855H6.69846Z" fill="url(#paint1_linear_31_12526)"/>
<path d="M15.6899 8.86295C15.6899 8.86295 18.8313 9.97724 18.8313 11.5801C18.8313 12.943 17.9999 12.8572 17.9999 12.8572C17.9999 12.8572 18.7756 12.2058 18.0642 11.1772C18.0642 11.1772 17.9999 12.4287 16.2856 12.4287C16.2856 12.4287 17.5285 12.1372 17.5285 11.5244C17.5285 10.9072 16.8385 9.90867 15.677 9.01295L15.1885 9.01724L15.2313 8.81152L15.6899 8.86295Z" fill="url(#paint2_linear_31_12526)"/>
<path d="M8.50285 10.6328C8.50285 10.6328 6.98999 11.1642 6.98999 12.6728C6.98999 14.1771 7.42285 15.57 9.85713 17.1428C9.85713 17.1428 7.86856 15.5657 7.89856 13.7057C7.89856 13.7057 8.97428 17.7685 14.1428 18.4285C14.1428 18.4285 10.6586 17.3271 9.52285 15.0642L9.3557 11.3614L8.50285 10.6328Z" fill="url(#paint3_linear_31_12526)"/>
<path d="M11.9485 15.1884C9.75426 15.1884 8.13426 13.8212 8.13426 13.8212L8.39997 13.3669L7.90283 13.3755L8.39997 11.9998H8.09997L8.64855 11.4426C8.21811 10.6291 7.96401 9.73389 7.90283 8.8155V8.35693C8.96569 8.39979 10.3028 9.32122 10.3028 9.32122L11.2671 9.55265L10.89 8.35693L12.8785 9.49265V8.81122L13.6285 9.26979C14.52 8.62693 15.8657 8.58836 15.8657 8.58836C15.8657 9.72408 15.12 11.5455 15.12 11.5455L15.7371 11.9998H15.3685L16.0971 13.3669L15.3685 13.2212L15.6428 13.8769C15.2314 14.4341 14.1428 15.1884 11.9485 15.1884ZM9.14997 9.42836C9.14997 9.42836 9.3514 9.98551 9.39855 10.0026L8.79855 10.0198L9.15855 10.8941L8.98712 11.0869L8.39997 9.26551L8.77712 9.34693L9.14997 9.42836ZM14.5371 9.43693L14.3743 9.96408H14.9528L14.5457 10.8384L14.7943 11.0826L15.3685 9.26122L14.5371 9.43265V9.43693ZM11.3871 12.4584L9.89569 11.5412C9.85283 12.0469 10.3671 12.9041 10.77 12.9041C11.16 12.9041 11.3871 12.4584 11.3871 12.4584ZM13.8728 11.5412L12.3814 12.4584C12.3814 12.4584 12.6085 12.9084 12.9985 12.9084C13.4014 12.9084 13.9157 12.0469 13.8728 11.5369V11.5412ZM11.8843 14.2712C11.3314 14.2712 10.89 14.0698 10.89 13.8169C10.89 13.6969 10.9114 13.5598 11.04 13.4826C11.2543 13.3626 11.67 13.3626 11.8843 13.3626C12.0985 13.3626 12.51 13.3626 12.7285 13.4826C12.8571 13.5469 12.8785 13.6969 12.8785 13.8169C12.8785 14.0698 12.4371 14.2712 11.8843 14.2712Z" fill="#F0F3FA"/>
<path d="M7.67577 8.35294L7.68434 8.12151L7.91577 8.13008C8.49434 8.15579 9.13292 8.41722 9.60434 8.65294C9.87679 8.79124 10.1415 8.94432 10.3972 9.11151L10.9286 9.24008L10.5001 7.86865L12.6515 9.09865V8.40865L13.6201 8.99579C14.0559 8.73538 14.5349 8.55538 15.0343 8.46437C15.3003 8.41172 15.5695 8.37736 15.8401 8.36151H15.8572L15.8658 8.58865C15.8658 8.58865 15.7801 8.58865 15.6386 8.60579C15.2143 8.64865 14.2972 8.79008 13.6243 9.27008L12.8786 8.81151V9.49294L10.8901 8.35722L11.2672 9.55722L10.3029 9.32151C10.3029 9.32151 9.14577 8.52865 8.13006 8.37865C8.05473 8.36791 7.97893 8.36076 7.90292 8.35722V8.81579C7.91149 9.37722 8.14292 10.5044 8.64863 11.4429L8.10434 12.0001H8.40434L7.90292 13.3715L8.40006 13.3672L8.13863 13.8215L7.98863 13.9929L7.84292 13.8729L8.00149 13.5987L7.5772 13.6072L8.07863 12.2272H7.56006L8.37434 11.4044C7.90292 10.4615 7.68863 9.39008 7.67577 8.82008C7.67362 8.67437 7.67362 8.52864 7.67577 8.38294V8.35294ZM15.3686 13.2215L15.6429 13.8772C15.2315 14.4344 14.1429 15.1887 11.9486 15.1887C9.75434 15.1887 8.13434 13.8215 8.13434 13.8215L7.98863 13.9929V13.9972H7.9972L8.01434 14.0144C8.10329 14.0894 8.19629 14.1595 8.29292 14.2244C8.48577 14.3529 8.76434 14.5329 9.12006 14.7087C9.81863 15.0601 10.8043 15.4158 11.9486 15.4158C14.1943 15.4158 15.3601 14.6401 15.8272 14.0101L15.9043 13.9072L15.7458 13.5258L16.5258 13.6844L15.7458 12.2272H16.4272L15.3986 11.4644C15.5132 11.1666 15.6175 10.865 15.7115 10.5601C15.8958 9.96008 16.0972 9.19294 16.0972 8.58865V8.35294L15.8572 8.36151L15.8658 8.58865C15.8658 8.66151 15.8658 8.73865 15.8572 8.81579C15.7715 9.95151 15.1201 11.5458 15.1201 11.5458L15.7372 12.0001H15.3686L16.0972 13.3672L15.3686 13.2215ZM14.5458 10.8429L14.7943 11.0872L15.3686 9.2658L14.5372 9.43722L14.3743 9.96865H14.9529L14.5458 10.8429ZM14.9829 9.74151L15.0343 9.57008L14.7129 9.63865L14.6829 9.74151H14.9829ZM9.39863 10.0072C9.35119 9.93855 9.31368 9.86352 9.2872 9.78437C9.21863 9.62151 9.15006 9.43294 9.15006 9.43294L8.40006 9.2658L8.9872 11.0872L9.15863 10.8987L8.79863 10.0244L9.39863 10.0072ZM8.81149 9.79294L8.73863 9.57437L8.97863 9.62579L9.04292 9.78865L8.81149 9.79722V9.79294ZM12.3815 12.4629C12.4163 12.5309 12.4595 12.5943 12.5101 12.6515C12.6172 12.7715 12.7843 12.9087 12.9986 12.9087C13.3329 12.9087 13.7443 12.3172 13.8515 11.8244C13.8729 11.7258 13.8815 11.6315 13.8729 11.5458L12.3815 12.4629ZM13.5558 12.0087L12.7072 12.5315C12.7929 12.6215 12.8958 12.6815 12.9986 12.6815C13.0201 12.6815 13.0758 12.6687 13.1658 12.5958C13.3341 12.4276 13.4681 12.2281 13.5601 12.0087H13.5558ZM12.6215 13.6887H12.6172C12.5118 13.6409 12.3985 13.6132 12.2829 13.6072C12.0178 13.5817 11.7509 13.5817 11.4858 13.6072C11.3315 13.6244 11.2158 13.6501 11.1515 13.6844C11.1429 13.6929 11.1343 13.6972 11.1301 13.7144C11.1198 13.7491 11.1155 13.7853 11.1172 13.8215C11.1172 13.8215 11.1301 13.8687 11.2758 13.9372C11.4172 14.0015 11.6358 14.0487 11.8843 14.0487C12.1372 14.0487 12.3515 14.0058 12.4929 13.9372C12.6386 13.8687 12.6515 13.8172 12.6515 13.8172V13.8215C12.6533 13.7839 12.649 13.7463 12.6386 13.7101C12.6368 13.7039 12.6339 13.6981 12.6301 13.6929H12.6215V13.6887ZM9.89577 11.5458C9.89149 11.6315 9.89577 11.7258 9.9172 11.8244C10.0243 12.3172 10.4358 12.9129 10.7701 12.9129C10.9843 12.9129 11.1558 12.7715 11.2586 12.6515L11.3272 12.5615C11.3701 12.5058 11.3872 12.4629 11.3872 12.4629L9.89577 11.5458ZM10.2129 12.0087C10.2515 12.1029 10.2986 12.2015 10.3586 12.2958C10.4358 12.4244 10.5258 12.5272 10.6072 12.5958C10.6929 12.6687 10.7486 12.6815 10.7701 12.6815C10.8729 12.6815 10.9715 12.6215 11.0572 12.5315L10.2129 12.0087ZM12.7286 13.4872C12.5143 13.3672 12.1029 13.3672 11.8843 13.3672C11.6701 13.3672 11.2586 13.3672 11.0401 13.4872C10.9115 13.5601 10.8901 13.7015 10.8901 13.8215C10.8901 14.0744 11.3315 14.2758 11.8843 14.2758C12.4372 14.2758 12.8786 14.0744 12.8786 13.8215C12.8786 13.7015 12.8572 13.5515 12.7286 13.4872Z" fill="#181B1E"/>
<path d="M11.0915 11.5459L11.5158 12.0002C11.5158 12.0002 11.5715 11.7945 11.5286 11.743C11.4858 11.7002 11.0915 11.5459 11.0915 11.5459ZM12.9129 11.5459L12.4843 12.0002C12.4843 12.0002 12.4286 11.7945 12.4715 11.743C12.5186 11.7002 12.9086 11.5459 12.9086 11.5459H12.9129ZM11.2072 13.3502V13.3459C11.2289 13.3259 11.2518 13.3073 11.2758 13.2902C11.4129 13.1883 11.5627 13.1047 11.7215 13.0416C11.8158 13.0073 11.91 12.9859 12 12.9859C12.2982 13.0097 12.5787 13.137 12.7929 13.3459C12.81 13.363 12.8486 13.3716 12.8786 13.363C12.9086 13.3502 12.9215 13.3288 12.9043 13.3116C12.6629 13.071 12.3405 12.9289 12 12.913C11.88 12.913 11.76 12.9388 11.6572 12.9773C11.4532 13.0484 11.2653 13.1591 11.1043 13.303H11.1C11.0786 13.3245 11.0872 13.3459 11.1172 13.3588C11.1472 13.3716 11.1858 13.3673 11.2029 13.3502H11.2072ZM13.35 14.3016C13.3715 14.3273 13.3715 14.3745 13.3458 14.4002H13.3415C13.324 14.4185 13.3054 14.4357 13.2858 14.4516C13.2472 14.4816 13.1958 14.5245 13.1315 14.5673C12.9907 14.6598 12.8288 14.715 12.6609 14.7277C12.493 14.7404 12.3246 14.7103 12.1715 14.6402C12.119 14.6119 12.0752 14.5698 12.045 14.5185C12.0147 14.4671 11.9992 14.4084 12 14.3488C12 14.3059 12.03 14.2759 12.0643 14.2759C12.1029 14.2759 12.1329 14.3102 12.1329 14.3488C12.1329 14.4173 12.1629 14.4773 12.2315 14.5202C12.3651 14.5787 12.5112 14.6027 12.6565 14.59C12.8018 14.5772 12.9415 14.5282 13.0629 14.4473C13.1302 14.4032 13.1933 14.353 13.2515 14.2973M13.35 14.2973C13.344 14.2908 13.3367 14.2857 13.3286 14.2821C13.3205 14.2786 13.3117 14.2767 13.3029 14.2767C13.294 14.2767 13.2853 14.2786 13.2772 14.2821C13.2691 14.2857 13.2618 14.2908 13.2558 14.2973H13.35Z" fill="#2B2A29"/>
<path d="M10.65 14.3016C10.6382 14.3156 10.6321 14.3335 10.6329 14.3517C10.6337 14.37 10.6413 14.3873 10.6542 14.4002C10.8471 14.5844 11.1171 14.7302 11.3828 14.7302C11.7728 14.7302 12 14.6016 12 14.3445C12 14.3102 11.97 14.2759 11.9357 14.2759C11.8971 14.2759 11.8671 14.3102 11.8671 14.3487C11.8671 14.4944 11.7385 14.593 11.3828 14.593C11.1771 14.593 10.89 14.4387 10.7442 14.293M10.65 14.3016C10.6557 14.2948 10.6627 14.2893 10.6707 14.2854C10.6786 14.2815 10.6873 14.2792 10.6962 14.2788C10.705 14.2784 10.7139 14.2799 10.7221 14.283C10.7304 14.2862 10.7379 14.2911 10.7442 14.2973H10.65V14.3016Z" fill="#2B2A29"/>
<path d="M14.25 12.913C14.25 12.913 13.7786 13.3715 13.3672 13.5215L14.0529 14.2758C14.0529 14.2758 14.3658 13.6673 14.25 12.9087V12.913ZM9.75005 12.913C9.75005 12.913 10.2215 13.3715 10.6329 13.5215L9.94719 14.2758C9.94719 14.2758 9.63433 13.6673 9.75005 12.9087V12.913Z" fill="#E72528"/>
</g>
<defs>
<linearGradient id="paint0_linear_31_12526" x1="7.67578" y1="5.85436" x2="16.7829" y2="17.9186" gradientUnits="userSpaceOnUse">
<stop stop-color="#0206BC"/>
<stop offset="0.95" stop-color="#3DAF49"/>
</linearGradient>
<linearGradient id="paint1_linear_31_12526" x1="6.98989" y1="10.4055" x2="6.50131" y2="12.5998" gradientUnits="userSpaceOnUse">
<stop stop-color="#E4282E"/>
<stop offset="1" stop-color="#F89F1C"/>
</linearGradient>
<linearGradient id="paint2_linear_31_12526" x1="16.097" y1="8.81152" x2="18.6042" y2="13.1401" gradientUnits="userSpaceOnUse">
<stop offset="0.4" stop-color="#E4282E"/>
<stop offset="1" stop-color="#F89F1C"/>
</linearGradient>
<linearGradient id="paint3_linear_31_12526" x1="10.6328" y1="14.7342" x2="7.48285" y2="13.65" gradientUnits="userSpaceOnUse">
<stop stop-color="#E4282E"/>
<stop offset="1" stop-color="#FDBE0E"/>
</linearGradient>
<clipPath id="clip0_31_12526">
<rect width="24" height="24" fill="white"/>
</clipPath>
</defs>
</svg>

<svg xmlns="http://www.w3.org/2000/svg" width="24" height="24" fill="none" viewBox="0 0 24 24"><g clip-path="url(#a)"><path fill="#F0F3FA" d="M0 0h24v24H0z"/><path fill="url(#b)" d="M12 4.714a7.285 7.285 0 1 1 0 14.571 7.285 7.285 0 0 1 0-14.57"/><path fill="#181B1E" d="M12 5.571a6.429 6.429 0 1 1 0 12.857 6.429 6.429 0 0 1 0-12.857"/><path fill="#EE2225" d="m12 16.556 2.276-1.826v-.454H9.947l-.223.227L12 16.552z"/><path fill="#EC2022" d="M15.857 13.367s.24.622.24 1.217c0 .45-.394.836-1.268.845a4.5 4.5 0 0 1-1.008-.129l-.454-.75 1.042-1.029 1.448-.15z"/><path fill="#981C1E" d="M15.36 13.367s.283.549.283 1.072c0 .531-.814.955-2.657.643l-.532-.67 1.222-.903z"/><path fill="#DB2027" d="M11.091 8.357s.738-.565 2.006-.471c0 0 .506-.437 1.577-.437 1.072 0 2.855.818 3.326 1.123 0 0-2.529-.738-3.304-.245-.78.493-.536 1.397-.536 1.397l-2.087-.214-.986-1.153z"/><path fill="#EA1C27" d="M15.771 9.27s.785 1.183.785 1.787c0 .609-.258.879-.922.939s-.93-.326-.9-.472l.459-1.958.578-.3z"/><path fill="#981C1E" d="M15.313 9.724s.784.986.784 1.492c0 .505-.253.728-.917.78-.664.047-.934-.27-.9-.395.03-.128.459-1.628.459-1.628z"/><path fill="url(#c)" d="M6.698 13.286s-.891-2.182 1.376-3.142l.283-.107-.069-.313-.214.086s-2.906.283-2.906 2.361c0 1.599 1.115 2.4 1.115 2.4s-1.26-1.701-.095-3c0 0-.21.686.515 1.715z"/><path fill="url(#d)" d="M15.69 8.863s3.141 1.114 3.141 2.717c0 1.363-.831 1.277-.831 1.277s.776-.651.064-1.68c0 0-.064 1.252-1.778 1.252 0 0 1.242-.292 1.242-.905 0-.617-.69-1.615-1.851-2.511l-.489.004.043-.205z"/><path fill="url(#e)" d="M8.503 10.633s-1.513.531-1.513 2.04c0 1.504.433 2.897 2.867 4.47 0 0-1.988-1.577-1.958-3.437 0 0 1.075 4.063 6.244 4.723 0 0-3.484-1.102-4.62-3.365l-.167-3.703z"/><path fill="#F0F3FA" d="M11.949 15.188c-2.195 0-3.815-1.367-3.815-1.367l.266-.454-.497.008L8.4 12h-.3l.549-.557a6.55 6.55 0 0 1-.746-2.627v-.46c1.063.044 2.4.965 2.4.965l.964.232-.377-1.196 1.989 1.136V8.81l.75.459c.891-.643 2.237-.682 2.237-.682 0 1.136-.746 2.958-.746 2.958l.617.454h-.369l.73 1.367-.73-.146.275.656c-.412.557-1.5 1.311-3.695 1.311M9.15 9.428s.201.558.249.575l-.6.017.36.874-.172.193L8.4 9.266l.377.08zm5.387.009-.163.527h.579l-.407.874.248.245.574-1.822-.83.172zm-3.15 3.021-1.491-.917c-.043.506.471 1.363.874 1.363.39 0 .617-.446.617-.446m2.486-.917-1.492.917s.227.45.617.45c.403 0 .918-.861.875-1.371zm-1.989 2.73c-.553 0-.994-.201-.994-.454 0-.12.021-.257.15-.334.214-.12.63-.12.844-.12s.626 0 .845.12c.128.064.15.214.15.334 0 .253-.442.454-.995.454"/><path fill="#181B1E" d="m7.676 8.353.008-.231.232.008c.578.026 1.217.287 1.688.523q.41.207.793.459l.532.128L10.5 7.87l2.152 1.23v-.69l.968.587c.436-.26.915-.44 1.414-.532q.4-.079.806-.102h.017l.009.227s-.086 0-.227.017c-.425.043-1.342.184-2.015.664l-.745-.458v.68L10.89 8.358l.377 1.2-.964-.235s-1.157-.793-2.173-.943a2 2 0 0 0-.227-.022v.459c.008.561.24 1.688.746 2.627L8.104 12h.3l-.501 1.371.497-.004-.261.454-.15.172-.146-.12.158-.274-.424.008.502-1.38H7.56l.814-.823c-.471-.943-.685-2.014-.698-2.584a15 15 0 0 1 0-.437zm7.693 4.869.274.655c-.412.557-1.5 1.312-3.694 1.312s-3.815-1.367-3.815-1.367l-.145.17v.005h.008l.017.017a3 3 0 0 0 .279.21c.193.129.471.309.827.485.699.351 1.684.707 2.829.707 2.245 0 3.411-.776 3.878-1.406l.077-.103-.158-.381.78.158-.78-1.457h.681l-1.028-.763q.172-.446.313-.904c.184-.6.385-1.367.385-1.971v-.236l-.24.009.009.227c0 .073 0 .15-.009.227-.085 1.136-.737 2.73-.737 2.73l.617.454h-.368l.728 1.367zm-.823-2.38.248.245.575-1.821-.832.171-.163.532h.579zm.437-1.1.051-.172-.321.069-.03.103zm-5.584.265a.9.9 0 0 1-.112-.223c-.068-.162-.137-.351-.137-.351l-.75-.167.587 1.821.172-.188-.36-.875zm-.588-.214-.072-.219.24.052.064.163-.232.008zm3.57 2.67a1 1 0 0 0 .13.189c.106.12.273.257.488.257.334 0 .745-.592.852-1.085q.033-.148.022-.278zm1.175-.454-.849.522c.086.09.189.15.292.15.021 0 .077-.012.167-.085.168-.168.302-.368.394-.587zm-.934 1.68h-.005a.9.9 0 0 0-.334-.082 4 4 0 0 0-.797 0c-.155.017-.27.043-.335.077-.008.009-.017.013-.02.03a.3.3 0 0 0-.014.107s.013.048.159.116c.141.065.36.112.608.112.253 0 .467-.043.609-.112.146-.068.159-.12.159-.12v.005a.3.3 0 0 0-.013-.112l-.009-.017h-.009zm-2.726-2.143q-.009.13.021.278c.107.493.519 1.089.853 1.089.214 0 .386-.142.489-.261l.068-.09c.043-.056.06-.1.06-.1zm.317.463q.057.143.146.287c.077.128.167.231.248.3.086.073.142.085.163.085.103 0 .202-.06.287-.15zm2.516 1.478c-.215-.12-.626-.12-.845-.12-.214 0-.625 0-.844.12-.128.073-.15.214-.15.335 0 .252.441.454.994.454s.995-.202.995-.454c0-.12-.022-.27-.15-.335"/><path fill="#2B2A29" d="m11.092 11.546.424.454s.056-.206.013-.257c-.043-.043-.437-.197-.437-.197m1.82 0-.428.454s-.055-.206-.012-.257c.047-.043.437-.197.437-.197zm-1.705 1.804v-.004a1.961 1.961 0 0 1 .514-.304.8.8 0 0 1 .279-.056c.298.024.579.151.793.36.017.017.056.026.086.017.03-.013.043-.034.025-.051a1.37 1.37 0 0 0-.904-.399c-.12 0-.24.026-.343.064a1.6 1.6 0 0 0-.553.326H11.1c-.021.021-.013.043.017.056s.069.008.086-.009zm2.143.952a.08.08 0 0 1-.004.098h-.005a1 1 0 0 1-.055.052c-.039.03-.09.072-.154.115a1 1 0 0 1-.96.073.33.33 0 0 1-.172-.291c0-.043.03-.073.064-.073.039 0 .069.034.069.073 0 .068.03.128.099.171a.87.87 0 0 0 .83-.073q.102-.066.19-.15m.098 0a.07.07 0 0 0-.073-.015.1.1 0 0 0-.021.015z"/><path fill="#2B2A29" d="M10.65 14.302a.073.073 0 0 0 .004.098c.193.184.463.33.729.33.39 0 .617-.128.617-.386 0-.034-.03-.068-.064-.068-.039 0-.069.034-.069.073 0 .145-.129.244-.484.244-.206 0-.493-.154-.639-.3m-.094.009a.06.06 0 0 1 .046-.023.07.07 0 0 1 .048.018h-.094z"/><path fill="#E72528" d="M14.25 12.913s-.471.458-.883.608l.686.755s.313-.609.197-1.367zm-4.5 0s.472.458.883.608l-.686.755s-.313-.609-.197-1.367z"/></g><defs><linearGradient id="b" x1="7.676" x2="16.783" y1="5.854" y2="17.919" gradientUnits="userSpaceOnUse"><stop stop-color="#0206BC"/><stop offset=".95" stop-color="#3DAF49"/></linearGradient><linearGradient id="c" x1="6.99" x2="6.501" y1="10.405" y2="12.6" gradientUnits="userSpaceOnUse"><stop stop-color="#E4282E"/><stop offset="1" stop-color="#F89F1C"/></linearGradient><linearGradient id="d" x1="16.097" x2="18.604" y1="8.812" y2="13.14" gradientUnits="userSpaceOnUse"><stop offset=".4" stop-color="#E4282E"/><stop offset="1" stop-color="#F89F1C"/></linearGradient><linearGradient id="e" x1="10.633" x2="7.483" y1="14.734" y2="13.65" gradientUnits="userSpaceOnUse"><stop stop-color="#E4282E"/><stop offset="1" stop-color="#FDBE0E"/></linearGradient><clipPath id="a"><path fill="#fff" d="M0 0h24v24H0z"/></clipPath></defs></svg>
